src/icons/solid/ai/dynamic-object-completion.svg

<svg width="24" height="24" viewBox="0 0 24 24" fill="none" xmlns="http://www.w3.org/2000/svg">
<g clip-path="url(#clip0_6362_1087)">
<path d="M10.987 9.15986C11.397 8.72744 12.0776 8.73798 12.4977 9.15986C12.9178 9.58215 12.9178 10.2829 12.4977 10.7155L2.82587 20.6765C2.41586 21.1089 1.73524 21.1088 1.31513 20.6765C0.895249 20.2541 0.895151 19.5533 1.31513 19.1208L10.987 9.15986Z" fill="#3C3B44"/>
<path d="M18.7995 2.00166C18.9394 2.01201 19.0892 2.08438 19.1892 2.1872C19.2891 2.29013 19.3595 2.4342 19.3796 2.58857C19.3896 2.74307 19.359 2.88729 19.279 3.02119C18.459 4.32913 18.4895 6.10074 19.3894 7.42939C19.4693 7.55282 19.5096 7.70772 19.4997 7.86201C19.4897 8.0165 19.419 8.16082 19.319 8.27412C19.219 8.38739 19.0794 8.4498 18.9294 8.47041C18.7894 8.49093 18.6394 8.44923 18.5095 8.36689C17.1892 7.49153 15.4784 7.51238 14.2282 8.39814C14.1083 8.48047 13.9582 8.52166 13.8083 8.51142C13.6584 8.50106 13.5179 8.42882 13.4079 8.32588C13.2981 8.22293 13.2375 8.07881 13.2175 7.92451C13.1975 7.77012 13.2381 7.62571 13.3181 7.49189C14.1382 6.18376 14.1079 4.41144 13.2077 3.08271C13.128 2.95921 13.0883 2.80433 13.0983 2.65009C13.1085 2.49593 13.1782 2.35208 13.278 2.23896C13.3779 2.1258 13.5178 2.06335 13.6677 2.04267C13.8176 2.02208 13.9586 2.06389 14.0886 2.14619H14.0983C15.4186 3.02149 17.1294 3.00064 18.3796 2.11494C18.4995 2.03271 18.6497 1.99143 18.7995 2.00166Z" fill="#3C3B44"/>
<path d="M22.7399 4.04072C22.7996 4.05099 22.8495 4.07214 22.8894 4.11298C22.9292 4.15406 22.9595 4.20573 22.9597 4.26728C22.9597 4.32905 22.9496 4.38085 22.9196 4.43232C22.6097 4.92658 22.62 5.59615 22.9597 6.09052C22.9896 6.14196 22.9997 6.19386 22.9997 6.25556C22.9897 6.31736 22.9694 6.36866 22.9294 6.40986C22.8895 6.45097 22.8398 6.48204 22.78 6.48213C22.7201 6.4821 22.6697 6.47192 22.6198 6.44111C22.1199 6.11167 21.4794 6.12135 21.0095 6.45088C20.9595 6.48173 20.9093 6.49287 20.8493 6.49287C20.7897 6.48255 20.7397 6.46155 20.6999 6.4206C20.6601 6.37952 20.6297 6.32783 20.6296 6.2663C20.6296 6.20464 20.6397 6.15267 20.6696 6.10127C20.9796 5.6069 20.9695 4.93746 20.6296 4.44306C20.5997 4.39165 20.5896 4.33971 20.5895 4.27802C20.5995 4.21633 20.6199 4.16488 20.6599 4.12373C20.6997 4.08268 20.7496 4.0517 20.8093 4.05146C20.8667 4.05146 20.9614 4.08924 20.9694 4.09248C21.4693 4.42203 22.1098 4.41215 22.5798 4.08271C22.6297 4.05185 22.68 4.04075 22.7399 4.04072Z" fill="#3C3B44"/>
<path d="M11.737 4.44306C11.7769 4.44306 11.8077 4.45334 11.8376 4.48408C11.8673 4.51477 11.8872 4.54579 11.8874 4.58662C11.8974 4.62776 11.8868 4.66901 11.8669 4.6999C11.6669 5.02943 11.6673 5.47285 11.8972 5.80244C11.9271 5.84358 11.9274 5.87461 11.9274 5.91572C11.9274 5.95677 11.9171 5.98747 11.8874 6.01826C11.8574 6.04914 11.8268 6.07002 11.7868 6.07002C11.7472 6.06991 11.7072 6.06008 11.6774 6.03974C11.3475 5.8133 10.9171 5.81319 10.6071 6.03974C10.5673 6.07039 10.5367 6.07002 10.4968 6.07002C10.4571 6.0699 10.427 6.05972 10.3972 6.029C10.3674 5.99829 10.3475 5.96733 10.3474 5.92646C10.3375 5.88554 10.3471 5.84397 10.3669 5.81318C10.5668 5.48364 10.5674 5.04022 10.3376 4.71064C10.3078 4.66957 10.3073 4.63845 10.3073 4.59736C10.3073 4.55625 10.3174 4.52469 10.3474 4.49384C10.3771 4.46323 10.4073 4.44323 10.447 4.44306C10.4854 4.44306 10.5522 4.47116 10.5573 4.47334H10.5671C10.8971 4.69993 11.3274 4.69989 11.6374 4.47334C11.6672 4.44282 11.6973 4.44306 11.737 4.44306Z" fill="#3C3B44"/>
</g>
<defs>
<clipPath id="clip0_6362_1087">
<rect width="24" height="24" fill="white"/>
</clipPath>
</defs>
</svg>

<svg xmlns="http://www.w3.org/2000/svg" width="24" height="24" fill="none" viewBox="0 0 24 24"><g fill="currentColor" clip-path="url(#a)"><path d="M10.987 9.16c.41-.433 1.09-.422 1.51 0s.42 1.123 0 1.556l-9.671 9.96a1.04 1.04 0 0 1-1.51 0 1.12 1.12 0 0 1 0-1.555zM18.8 2.002c.14.01.29.082.39.185s.17.247.19.402a.73.73 0 0 1-.101.432c-.82 1.308-.79 3.08.11 4.408a.72.72 0 0 1 .11.433.7.7 0 0 1-.18.412.62.62 0 0 1-.81.093c-1.32-.875-3.03-.855-4.28.031a.67.67 0 0 1-.42.113.66.66 0 0 1-.401-.185.66.66 0 0 1-.19-.401.66.66 0 0 1 .1-.433c.82-1.308.79-3.08-.11-4.41a.72.72 0 0 1-.11-.432.7.7 0 0 1 .18-.411.624.624 0 0 1 .81-.093h.01c1.32.875 3.031.855 4.282-.031a.67.67 0 0 1 .42-.113m3.94 2.038c.06.011.11.032.15.073s.07.093.07.154a.3.3 0 0 1-.04.165c-.31.495-.3 1.164.04 1.659.03.051.04.103.04.165a.27.27 0 0 1-.07.154.2.2 0 0 1-.15.072c-.06 0-.11-.01-.16-.04-.5-.33-1.14-.32-1.61.009-.05.03-.1.042-.16.042a.26.26 0 0 1-.15-.072.22.22 0 0 1-.07-.155c0-.061.01-.113.04-.165.31-.494.3-1.164-.04-1.658a.3.3 0 0 1-.04-.165.27.27 0 0 1 .07-.154.2.2 0 0 1 .15-.073c.057 0 .151.038.16.041.5.33 1.14.32 1.61-.01.05-.03.1-.041.16-.041m-11.003.402c.04 0 .07.01.1.041.03.03.05.062.05.103.01.04 0 .082-.02.113-.2.33-.2.773.03 1.102.03.042.03.073.03.114 0 .04-.01.071-.04.102s-.06.052-.1.052-.08-.01-.11-.03a.93.93 0 0 0-1.07 0c-.04.03-.07.03-.11.03s-.07-.01-.1-.041c-.03-.03-.05-.062-.05-.103-.01-.04 0-.082.02-.113.2-.33.2-.773-.03-1.102-.03-.041-.03-.073-.03-.114 0-.04.01-.072.04-.103.03-.03.06-.05.1-.05.038 0 .105.027.11.03h.01c.33.226.76.226 1.07 0 .03-.031.06-.03.1-.03"/></g><defs><clipPath id="a"><path fill="currentColor" d="M0 0h24v24H0z"/></clipPath></defs></svg>
